packages/katcn/src/icons/svg/onOff-solid.svg

<svg xmlns="http://www.w3.org/2000/svg" fill="none" viewBox="0 0 24 24"><path fill="#000" d="M12 2C6.5 2 2 6.5 2 12s4.5 10 10 10 10-4.5 10-10S17.5 2 12 2m0 15.9c-3.2 0-5.9-2.6-5.9-5.9 0-1.7.8-3.4 2.1-4.5.4-.3 1.1-.3 1.4.1.4.5.3 1.1-.1 1.5-.9.7-1.4 1.8-1.4 3 0 2.1 1.7 3.9 3.9 3.9s3.9-1.7 3.9-3.9c0-1.1-.5-2.2-1.4-3-.4-.3-.5-1-.1-1.4s1-.5 1.4-.1c1.3 1.1 2.1 2.8 2.1 4.5 0 3.2-2.7 5.8-5.9 5.8m0-12.4c.5 0 1 .4 1 1v3.7c0 .5-.5 1-1 1s-1-.5-1-1V6.5c0-.6.5-1 1-1"/></svg>

<svg width="24" height="24" viewBox="0 0 24 24" fill="none" xmlns="http://www.w3.org/2000/svg">
<path d="M12 2C6.5 2 2 6.5 2 12C2 17.5 6.5 22 12 22C17.5 22 22 17.5 22 12C22 6.5 17.5 2 12 2ZM12 17.9C8.8 17.9 6.1 15.3 6.1 12C6.1 10.3 6.9 8.6 8.2 7.5C8.6 7.2 9.3 7.2 9.6 7.6C10 8.1 9.9 8.7 9.5 9.1C8.6 9.8 8.1 10.9 8.1 12.1C8.1 14.2 9.8 16 12 16C14.2 16 15.9 14.3 15.9 12.1C15.9 11 15.4 9.9 14.5 9.1C14.1 8.8 14 8.1 14.4 7.7C14.8 7.3 15.4 7.2 15.8 7.6C17.1 8.7 17.9 10.4 17.9 12.1C17.9 15.3 15.2 17.9 12 17.9ZM12 5.5C12.5 5.5 13 5.9 13 6.5V10.2C13 10.7 12.5 11.2 12 11.2C11.5 11.2 11 10.7 11 10.2V6.5C11 5.9 11.5 5.5 12 5.5Z" fill="black"/>
</svg>
